!!!OTL: 119. Freylekhs
!!!Genre:	Freylekhs
!!!Mode:	Altered Dorian
!!!Listening/dance:	dance
!!!:	*G:
!!!One_Mode:	no
**kern
*part1
*staff1
*clefG2
*k[b-]
*g:dor
*M2/4
*>A
!LO:TX:a:i:t=G-raised-fourth
=1-
(>8gL
(>8qcc#X/
8ddJ)
(>8gL
(>8qcc#/
8ddJ)
=2
(>8gL
(>8qcc#X/
8ddJ)
4dd
=3
16cc#XLL
16dd
16ee
16ddJJ
16cc#LL
16b-
16a
16gJJ
=4
4dd
(>8qff#X/
4gg)
=5
8gL
(>8qcc#X/
8ddJ)
8gL
(>8qcc#/
8ddJ)
=6
8gL
(>8qcc#X/
8ddJ)
4dd
=7
16cc#XLL
16dd
16ee
16ddJJ
16cc#LL
16b-
16a
16gJJ
=8
(<16aLL
(<8qcc#X/
16b-JJ)
4g)
8gg
=9!|:
*>B
(>16ggLL
16ff
16ee
16ffJJ)
(>8.eeL
16ddJk)
=10
16eeLL
16dd
16cc#X
16ddJJ
8.cc#L
16b-Jk
=11
16cc#XLL
16dd
16ee
16ddJJ
16cc#LL
16b-
16a
16gJJ
*>B1
=12
4dd
4gg
*>B2
=13:|!
(<16aLL
16b-JJ)
4g
8d
*>bM
*G:
=14!|:
*>C
*k[f#]
2b
=15
2b
=16
(>8qcc/
4b)
(>8qcc/
4b)
=17
4b
(>8.bL
16ddJk)
=18
(>16ddLL
16cc)
(>16cc
16bJJ)
8.bL
16ddJk
=19
(>16ddLL
16cc)
(>16cc
16bJJ)
8.bL
16ddJk
=20
(>16ddLL
16cc)
(>16cc
16bJJ)
(<16bLL
16a)
(<16a
16gJJ)
*>C1
=21
16aLL
16bJJ
4g
24dLL
24g
24aJJ
*>C2
=22:|!
(<16aLL
16bJJ
4g)
8d
*>eM
==
*-
